contributed-vectors/radiant_defense.svg

<?xml version="1.0" encoding="UTF-8" standalone="no"?>
<svg
   xmlns:dc="http://purl.org/dc/elements/1.1/"
   xmlns:cc="http://creativecommons.org/ns#"
   xmlns:rdf="http://www.w3.org/1999/02/22-rdf-syntax-ns#"
   xmlns:svg="http://www.w3.org/2000/svg"
   xmlns="http://www.w3.org/2000/svg"
   xmlns:sodipodi="http://sodipodi.sourceforge.net/DTD/sodipodi-0.dtd"
   xmlns:inkscape="http://www.inkscape.org/namespaces/inkscape"
   viewBox="0 0 192 192"
   version="1.1"
   id="svg16"
   sodipodi:docname="radiant_defense_alt.svg"
   inkscape:version="0.92.4 (5da689c313, 2019-01-14)">
  <metadata
     id="metadata20">
    <rdf:RDF>
      <cc:Work
         rdf:about="">
        <dc:format>image/svg+xml</dc:format>
        <dc:type
           rdf:resource="http://purl.org/dc/dcmitype/StillImage" />
        <dc:title></dc:title>
      </cc:Work>
    </rdf:RDF>
  </metadata>
  <sodipodi:namedview
     pagecolor="#ffffff"
     bordercolor="#666666"
     borderopacity="1"
     objecttolerance="10"
     gridtolerance="10"
     guidetolerance="10"
     inkscape:pageopacity="0"
     inkscape:pageshadow="2"
     inkscape:window-width="1920"
     inkscape:window-height="1017"
     id="namedview18"
     showgrid="true"
     inkscape:zoom="3.4766083"
     inkscape:cx="85.621768"
     inkscape:cy="108.95913"
     inkscape:window-x="-8"
     inkscape:window-y="-8"
     inkscape:window-maximized="1"
     inkscape:current-layer="svg16">
    <inkscape:grid
       type="xygrid"
       id="grid827"
       spacingx="4"
       spacingy="4" />
  </sodipodi:namedview>
  <defs
     id="defs4">
    <style
       id="style2">.a{fill:none;stroke:#b1b5bd;stroke-linecap:round;stroke-linejoin:round;isolation:isolate;opacity:0.63;}</style>
  </defs>
  <rect
     class="a"
     x="20"
     y="20"
     width="152"
     height="152"
     rx="10"
     id="rect6"
     style="fill-opacity:1;fill:#8c72bd;opacity:1;stroke:none" />
  <path
     style="opacity:1;vector-effect:none;fill:#ffffff;fill-opacity:1;fill-rule:evenodd;paint-order:stroke fill markers"
     d="M 96 56 C 80 56 58.533203 66.554729 58.533203 92 C 58.533203 101.08982 62.74712 103.19141 70.039062 103.19141 C 71.999538 103.19141 72 104.91797 72 104.91797 L 72 126 C 72 129.324 74.676 132 78 132 C 81.324 132 84 129.324 84 126 L 84 108 L 84 107 C 84 105.338 85.337999 104 87 104 C 88.662001 104 90 105.338 90 107 L 90 108 L 90 128.47266 C 90 131.79666 92.676 134.47266 96 134.47266 C 99.324 134.47266 102 131.79666 102 128.47266 L 102 108 L 102 107 C 102 105.338 103.338 104 105 104 C 106.662 104 108 105.338 108 107 L 108 108 L 108 126 C 108 129.324 110.676 132 114 132 C 117.324 132 120 129.324 120 126 L 120 104.91797 C 120 104.91797 120.00047 103.19141 121.96094 103.19141 C 129.25289 103.19141 133.4668 101.08982 133.4668 92 C 133.4668 66.554729 112 56 96 56 z "
     id="rect829" />
  <path
     style="opacity:1;vector-effect:none;fill:#8c72bd;fill-opacity:1;fill-rule:evenodd;stroke:none;paint-order:stroke fill markers"
     d="M 107.3457 63.712891 C 105.6977 63.719 104.10204 64.111922 102.65625 64.931641 C 96.873094 68.210515 95.737543 77.056704 100.10938 84.767578 C 104.48121 92.478452 112.6563 96.046452 118.43945 92.767578 C 124.22261 89.488704 125.35816 80.642515 120.98633 72.931641 C 117.70745 67.148485 112.28971 63.694563 107.3457 63.712891 z M 80 72 C 73.352 72 68 77.352 68 84 C 68 90.648 73.352 96 80 96 C 86.648 96 92 90.648 92 84 C 92 77.352 86.648 72 80 72 z "
     id="rect873" />
</svg>

<svg xmlns="http://www.w3.org/2000/svg" viewBox="0 0 192 192"><rect width="152" height="152" x="20" y="20" rx="10" style="fill-opacity:1;fill:#8c72bd;opacity:1;stroke:none;stroke-linecap:round;stroke-linejoin:round;isolation:isolate"/><path d="M96 56c-16 0-37.467 10.555-37.467 36 0 9.09 4.214 11.191 11.506 11.191 1.96 0 1.961 1.727 1.961 1.727V126c0 3.324 2.676 6 6 6s6-2.676 6-6v-19c0-1.662 1.338-3 3-3s3 1.338 3 3v21.473c0 3.324 2.676 6 6 6s6-2.676 6-6V107c0-1.662 1.338-3 3-3s3 1.338 3 3v19c0 3.324 2.676 6 6 6s6-2.676 6-6v-21.082s0-1.727 1.96-1.727c7.293 0 11.507-2.101 11.507-11.191C133.467 66.555 112 56 96 56z" style="opacity:1;vector-effect:none;fill:#fff;fill-opacity:1;fill-rule:evenodd;paint-order:stroke fill markers"/><path d="M107.346 63.713c-1.648.006-3.244.399-4.69 1.219-5.783 3.279-6.918 12.125-2.547 19.836 4.372 7.71 12.547 11.278 18.33 8 5.784-3.28 6.92-12.125 2.547-19.836-3.279-5.784-8.696-9.237-13.64-9.22zM80 72c-6.648 0-12 5.352-12 12s5.352 12 12 12 12-5.352 12-12-5.352-12-12-12z" style="opacity:1;vector-effect:none;fill:#8c72bd;fill-opacity:1;fill-rule:evenodd;stroke:none;paint-order:stroke fill markers"/></svg>
